Resources/app/storefront/src/assets/icon-pack/cinema/ic-menu.svg

<?xml version="1.0" encoding="UTF-8"?>
<svg width="18px" height="8px" viewBox="0 0 18 8" version="1.1" xmlns="http://www.w3.org/2000/svg" xmlns:xlink="http://www.w3.org/1999/xlink">
    <title>790EBC6E-CADA-4688-8E44-CD7FF327660C@1x</title>
    <defs>
        <path d="M20.0066023,14 C20.5160523,14 20.935933,14.3827202 20.9933167,14.8826674 L21,15 C21,15.5522847 20.5550537,16 20.0066023,16 L3.99339768,16 C3.48394775,16 3.06406704,15.6172798 3.00668331,15.1173326 L3,15 C3,14.4477153 3.44494629,14 3.99339768,14 L20.0066023,14 Z M20.0066023,8 C20.5160523,8 20.935933,8.38272018 20.9933167,8.88266744 L21,9 C21,9.55228475 20.5550537,10 20.0066023,10 L3.99339768,10 C3.44475929,10 3,9.55613518 3,9 C3,8.44771525 3.44494629,8 3.99339768,8 L20.0066023,8 Z" id="path-1"></path>
    </defs>
    <g id="Lizenzen-&amp;-Assets-✅" stroke="none" stroke-width="1" fill="none" fill-rule="evenodd">
        <g id="Icons" transform="translate(-246.000000, -498.000000)">
            <g id="Group" transform="translate(243.000000, 490.000000)">
                <mask id="mask-2" fill="white">
                    <use xlink:href="#path-1"></use>
                </mask>
                <use id="Mask" fill="#1F2E3D" fill-rule="nonzero" xlink:href="#path-1"></use>
                <g mask="url(#mask-2)" fill="#071C31" id="Rectangle">
                    <g>
                        <rect x="0" y="0" width="24" height="24"></rect>
                    </g>
                </g>
            </g>
        </g>
    </g>
</svg>

<?xml version="1.0" encoding="UTF-8"?><svg width="18" height="8" xmlns="http://www.w3.org/2000/svg" xmlns:xlink="http://www.w3.org/1999/xlink"><defs><path d="M20 14a1 1 0 0 1 1 .88V15a1 1 0 0 1-1 1H4a1 1 0 0 1-1-.88V15a1 1 0 0 1 1-1h16Zm0-6a1 1 0 0 1 1 .88V9a1 1 0 0 1-1 1H4a1 1 0 0 1-1-1 1 1 0 0 1 1-1h16Z" id="a-menu"/></defs><use fill="currentColor" fill-rule="nonzero" xlink:href="#a-menu" transform="translate(-1)" stroke="no`ne"/></svg>
